!!!OTL: Qui in mundum uenisti
**kern
*staff1
*clefC3
*k[b-]
*M3/1
1f
2f\
=
1f
2f\
=
2f\
1B-
=
2B-/
1F
=
1B-
2B-/
=1
1F
=2
!!linebreak:original
1c
2B-/
=
1A
2F/
=
1G
2G/
=3
1c;
=4
1c
2B-/
=
1A
2F/
=
1G
2G/
=5
0c
==
*-
!!title: @{OTL}, @{GTL}, ed. @{ENC}
!!!pag:
!!!GTL: Hymnbook D
!!!EFL: 
!!!YEM: Creative Commons CC/BY/NC/SA 4.0
!!!ENC: Marcin Konik
!!!END: 2015-0m-dd
!!!EED: Marcin Konik
!!!EEV: 
!!!ONB: Encoded in vim by Marcin Konik
!!!CharacterEncoding: utf-8
!!!RDF**kern: l=long note in original notation
!!!RDF**kern: i=editorial accidental
!!muse2ps: z14jc180F
!!!COM: Anonim
!!!CDT: [?]
!!!TXO: Polish
!!!ODT: 
!!!GTL: Hymnbook D
!!!ARL: Opactwo św. Wojciecha, Staniątki 
!!!voices:	1
